public/img/decorations/deco-dots-5.svg

<svg width="139" height="92" viewBox="0 0 139 92" fill="none" xmlns="http://www.w3.org/2000/svg">
<path d="M106.104 84.229C106.364 85.6 106.694 86.866 106.823 88.153C106.948 89.399 106.266 90.469 105.161 90.704C102.749 91.218 100.472 90.876 98.3818 89.36C98.5748 88.625 98.6889 88.01 98.8979 87.432C99.1889 86.635 99.7608 86.166 100.623 85.954C102.379 85.521 102.371 85.486 103.699 83.797C103.172 83.48 102.662 83.172 102.189 82.888C102.353 82.458 102.548 82.046 102.668 81.614C102.998 80.43 103.717 79.598 104.973 79.653C107.284 79.754 109.301 79.251 111.209 77.831C112.531 76.849 115.104 78.616 115.174 80.358C115.201 81.018 114.563 81.693 115.268 82.386C115.362 82.478 114.905 83.374 114.524 83.657C113.256 84.597 111.756 84.827 110.215 84.696C108.799 84.574 107.393 84.379 106.104 84.229Z" fill="black"/>
<path d="M47.6938 37.6119C47.9148 36.3859 48.4338 35.7619 49.6278 35.7639C50.4968 35.7649 51.3778 35.6509 52.2278 35.4689C53.2998 35.2399 54.3448 34.8909 55.3998 34.5909C55.4738 34.5699 55.5389 34.4979 55.6129 34.4849C58.2319 34.0209 60.2299 32.6399 62.0149 30.6689C63.3019 29.2469 65.6829 30.3719 66.2079 32.4679C66.8939 35.2019 66.3698 36.6259 63.8188 37.9689C62.5048 38.6609 61.0178 39.1999 59.5538 39.3979C57.1988 39.7159 54.7978 39.7979 52.4168 39.7799C50.6388 39.7659 48.9728 39.1939 47.6938 37.6119Z" fill="black"/>
<path d="M6.35986 60.184C6.96886 57.344 7.00087 57.323 9.46387 57.208C11.0379 57.135 12.6499 57.223 14.1749 56.906C15.7059 56.588 17.2239 55.993 18.6199 55.275C21.0009 54.048 21.9209 54.171 23.5279 56.211C24.0789 56.908 23.9989 57.486 23.8779 58.352C23.5849 60.433 22.2569 61.254 20.5689 61.868C16.3779 63.393 12.2469 62.876 8.17287 61.409C7.53187 61.178 7.00386 60.629 6.35986 60.184Z" fill="black"/>
<path d="M97.416 82.918C97.213 83.34 96.988 83.809 96.764 84.279C97.037 84.615 97.313 84.951 97.643 85.351C94.057 87.213 90.338 87.851 86.512 87.83C84.41 87.818 82.231 88.258 80.186 87.226C80.43 86.997 80.635 86.806 80.881 86.574C80.52 86.13 80.184 85.719 79.811 85.262C82.258 83.838 84.723 82.846 87.489 82.522C88.792 82.37 90.04 81.713 91.301 81.251C94.105 80.221 95.236 80.506 97.416 82.918Z" fill="black"/>
<path d="M59.9648 78.133C60.0568 77.777 60.3238 77.34 60.2108 77.059C59.7928 76.027 60.4569 75.78 61.1729 75.577C61.5499 75.47 61.9598 75.452 62.3568 75.454C65.7178 75.47 68.4979 74.233 70.7809 71.744C72.0699 70.337 74.3358 71.05 74.8468 73.077C75.1278 74.189 75.0789 75.429 74.9489 76.585C74.8869 77.127 74.3259 77.656 73.8939 78.099C73.5699 78.431 73.1009 78.628 72.6829 78.863C69.1149 80.867 63.0178 80.521 59.9648 78.133Z" fill="black"/>
<path d="M16 31.0679C16.137 29.4439 16.592 28.1419 18.125 27.5989C16.305 23.2529 16.305 23.2529 16.666 21.3099C18.377 21.4279 18.201 22.9129 18.467 23.9419C18.735 24.9839 18.713 26.1 18.822 27.243C20.763 27.286 21.715 25.9039 22.845 24.8419C23.247 24.4629 23.521 23.9399 23.937 23.5819C24.951 22.7109 25.984 22.7889 26.908 23.7299C28.847 25.7039 28.558 29.1439 26.168 30.5429C24.961 31.2489 23.522 31.6539 22.133 31.9249C20.155 32.3119 17.881 31.8859 16 31.0679Z" fill="black"/>
<path d="M0.956055 68.1679C2.45605 68.3319 3.63606 68.4279 4.80406 68.5989C6.43506 68.8379 7.94506 68.6459 9.42506 67.8319C11.5401 66.6699 13.4721 67.5039 14.0291 69.7599C14.2581 70.6849 13.3121 71.6149 13.9351 72.5849C13.3411 73.0909 12.8081 73.6999 12.1441 74.0859C8.76907 76.0469 4.05005 74.3899 2.04005 72.6909C1.59505 72.3139 1.26106 71.6659 1.13606 71.0859C0.956063 70.2579 1.01405 69.3779 0.956055 68.1679Z" fill="black"/>
<path d="M106.498 32.424C106.687 33.384 106.836 34.132 106.984 34.88C107.265 36.313 107.009 36.968 105.687 37.589C103.599 38.571 101.419 38.672 99.1053 38.099C98.7913 36.288 98.7533 34.75 100.798 33.921C101.216 33.751 101.507 33.106 101.72 32.62C102.669 30.468 103.052 30.291 105.343 31.084C105.489 31.135 105.652 31.14 105.943 31.19C105.996 30.819 106.173 30.416 106.078 30.094C105.519 28.23 106.832 27.069 107.74 25.842C108.545 24.753 110.011 25.046 110.703 26.253C110.742 26.321 110.754 26.404 110.785 26.477C112.021 29.354 112.543 30.949 108.088 32.117C107.709 32.216 107.318 32.268 106.498 32.424Z" fill="black"/>
<path d="M138.436 24.548C135.854 25.912 133.518 25.62 131.118 24.677C130.159 24.301 130.499 23.297 129.897 22.704C128.346 22.543 126.954 23.932 125.348 23.377C124.555 21.529 124.776 19.939 126.229 18.581C126.344 18.474 126.436 18.337 126.522 18.203C128.012 15.848 128.204 15.803 130.713 17.141C131.203 18.355 131.658 19.481 132.158 20.72C132.414 20.395 132.584 20.131 132.801 19.91C134.291 18.389 136.174 18.616 137.115 20.47C137.511 21.248 137.795 22.089 138.082 22.917C138.234 23.357 138.285 23.834 138.436 24.548Z" fill="black"/>
<path d="M34.8291 4.50297C36.8371 3.99697 38.6281 3.46599 40.4561 3.11399C41.5971 2.89399 42.4811 2.54796 43.2491 1.56696C44.2391 0.304966 45.8821 0.537985 46.4851 2.07398C47.0241 3.44398 47.2081 4.98499 47.3211 6.46699C47.3541 6.89499 46.6941 7.61797 46.1981 7.80497C43.3231 8.89197 40.3311 9.27397 37.2761 8.79997C36.2491 8.64097 35.5921 7.96898 35.3931 6.89298C35.2641 6.19698 35.0711 5.51297 34.8291 4.50297Z" fill="black"/>
<path d="M40.8152 71.041C36.5812 74.914 32.7922 75.479 29.3872 72.709C29.4242 72.201 29.4442 71.655 29.5062 71.115C29.6782 69.642 29.8462 69.426 31.3672 69.228C33.2602 68.982 34.7342 67.986 36.1442 66.811C37.6382 65.566 38.1442 65.478 39.2852 66.167C40.7382 67.046 40.9902 67.696 40.7192 69.483C40.6432 69.99 40.7782 70.528 40.8152 71.041Z" fill="black"/>
<path d="M128.309 42.932C122.561 47.592 119.807 48.37 114.194 47.777C114.751 47.338 115.128 47.04 115.663 46.617C115.214 46.356 114.829 46.133 114.431 45.901C114.507 45.807 114.587 45.711 114.665 45.611C115.452 44.583 116.536 43.995 117.661 43.385C119.19 42.558 120.651 41.574 122.026 40.509C123.307 39.516 124.649 39.399 126.085 39.844C126.94 40.11 127.724 40.588 127.296 41.733C126.957 42.641 127.877 42.471 128.309 42.932Z" fill="black"/>
<path d="M86.275 45.086C85.937 45.625 85.537 46.1209 85.293 46.6839C84.33 48.8889 82.457 49.847 80.283 50.306C78.334 50.718 76.349 50.8379 74.39 50.3309C74.302 49.6469 74.218 48.9959 74.105 48.1149C74.56 47.2129 75.572 46.614 76.701 46.246C78.556 45.639 80.221 44.837 81.308 43.086C81.833 42.24 82.706 41.807 83.751 41.832C85.075 41.862 85.73 42.436 85.974 43.803C86.027 44.1 86.058 44.403 86.12 44.698C86.15 44.84 86.229 44.973 86.275 45.086Z" fill="black"/>
<path d="M121.824 77.194C121.939 76.242 122.019 75.623 122.09 75.002C122.195 74.043 122.682 73.43 123.608 73.083C125.194 72.488 126.628 71.762 127.247 69.934C127.534 69.089 128.481 68.6491 129.436 68.8341C130.581 69.0571 131.545 69.709 131.942 70.822C132.284 71.783 132.501 72.839 132.497 73.852C132.495 74.484 132.067 75.173 131.673 75.726C131.421 76.08 130.909 76.304 130.468 76.46C127.736 77.432 124.955 77.83 121.824 77.194Z" fill="black"/>
<path d="M51.6759 16.533C51.6169 15.862 51.5139 15.259 51.5259 14.658C51.5379 14.032 51.6589 13.4081 51.7489 12.6531C52.4559 12.2681 53.1669 11.654 53.9699 11.495C55.2239 11.247 56.1299 10.723 56.9169 9.70304C57.5889 8.82804 58.7389 8.86004 59.7079 9.47004C61.3789 10.525 61.9029 12.237 61.7499 13.967C61.6049 15.601 60.2489 16.567 58.6719 16.939C57.6799 17.173 56.6229 17.318 55.6149 17.24C54.2859 17.138 52.9749 16.778 51.6759 16.533Z" fill="black"/>
<path d="M119.262 13.8669C116.807 13.8959 115.676 12.5509 116.225 10.6609C116.352 10.2259 116.907 9.72191 117.354 9.60791C118.889 9.21991 119.5 8.09991 119.932 6.77191C120.03 6.46991 120.063 6.1419 120.192 5.8559C120.618 4.9099 121.325 4.3269 122.405 4.3269C123.481 4.3269 124.579 5.09491 124.964 6.08691C125.021 6.23391 125.028 6.40292 125.093 6.54492C125.669 7.78292 126.183 9.00489 125.454 10.3859C124.614 11.9719 123.202 12.8379 121.616 13.4169C120.736 13.7389 119.752 13.7789 119.262 13.8669Z" fill="black"/>
<path d="M104.992 63.73C105.053 63.074 105.086 62.761 105.109 62.448C105.257 60.407 105.277 60.226 107.16 59.84C108.666 59.531 109.353 58.695 109.594 57.301C109.608 57.223 109.643 57.148 109.655 57.07C109.809 56.067 110.163 55.19 111.27 54.94C112.178 54.735 113.495 55.442 113.836 56.7C114.326 58.501 114.887 60.362 114.27 62.292C113.971 63.225 113.399 63.765 112.454 63.991C109.99 64.582 107.58 64.395 104.992 63.73Z" fill="black"/>
<path d="M24.8462 54.883C24.8952 54.06 24.8462 53.408 24.9942 52.806C25.1172 52.306 25.3712 51.7509 25.7442 51.4159C27.0292 50.2579 28.4222 49.22 29.7132 48.066C30.3672 47.481 31.0592 47.12 31.8562 47.489C32.8052 47.929 33.7582 48.636 33.8212 49.717C33.9442 51.899 33.4642 53.76 31.1692 54.946C28.9872 56.072 27.0532 56.432 24.8462 54.883Z" fill="black"/>
<path d="M58.0142 49.3159C59.6782 48.5729 60.7761 47.6629 61.6151 46.3189C62.8041 44.4179 65.2652 44.6879 66.0192 46.8169C66.4142 47.9249 66.5482 49.2949 66.2852 50.4249C65.8962 52.0799 64.5171 53.1279 62.8261 53.2339C61.6071 53.3089 60.1312 53.1999 59.1982 52.5539C58.4852 52.0619 58.4402 50.5999 58.0142 49.3159Z" fill="black"/>
<path d="M123.707 50.74C123.945 50.275 124.348 49.767 124.25 49.636C123.141 48.154 124.568 47.798 125.336 47.414C126.315 46.925 127.453 46.751 128.617 46.413C128.699 46.306 128.877 46.138 128.98 45.933C129.445 45.019 130.068 44.24 131.193 44.494C132.388 44.765 132.97 45.771 133.326 46.859C133.494 47.371 133.457 47.946 133.586 48.474C134.029 50.298 133.781 50.681 131.844 50.973C129.215 51.369 126.598 51.199 123.707 50.74Z" fill="black"/>
<path d="M68.6989 91.111C68.2749 91.06 67.8028 90.992 67.3258 90.947C66.4158 90.862 65.8468 90.415 65.7108 89.482C65.6288 88.929 65.5528 88.375 65.4508 87.826C65.2708 86.852 65.7188 86.213 66.6228 86.073C67.6698 85.911 68.3118 85.318 68.9508 84.561C69.5898 83.803 70.1778 82.726 71.4858 83.371C72.4248 83.833 73.0059 85.461 72.7299 86.709C72.6279 87.168 72.4898 87.623 72.4348 88.087C72.1848 90.211 71.7748 90.664 69.7058 91.004C69.3928 91.055 69.0719 91.072 68.6989 91.111Z" fill="black"/>
<path d="M95.709 68.397C94.766 68.255 93.7989 68.2 92.8889 67.945C92.1489 67.739 91.3969 67.446 91.4339 66.351C91.4809 65.04 91.7839 64.181 92.8419 63.915C93.5999 63.726 94.071 63.423 94.528 62.792C95.755 61.095 97.6759 61.299 98.6199 63.187C98.8249 63.599 98.8599 64.1 98.9539 64.564C99.5859 67.652 98.83 68.529 95.709 68.397Z" fill="black"/>
<path d="M32.061 13.144C30.856 13.36 29.87 13.536 28.696 13.747C27.555 13.093 27.128 11.8999 27.044 10.5009C26.946 8.91195 27.464 7.51993 28.483 6.34693C29.239 5.47793 30.458 5.46194 31.2 6.35694C31.68 6.93794 32.122 7.72995 32.171 8.45395C32.274 10.013 32.114 11.591 32.061 13.144Z" fill="black"/>
<path d="M49.938 45.7579C49.735 46.6679 49.622 47.6129 49.301 48.4809C49.016 49.2609 48.342 49.4009 47.553 49.1059C46.121 48.5689 45.549 47.1979 44.821 46.0829C44.223 45.1709 45.895 42.2929 46.971 41.9559C47.774 41.7059 48.92 42.3799 49.422 43.4059C49.524 43.6179 49.658 43.8389 49.674 44.0629C49.711 44.6119 49.686 45.1649 49.686 45.7169C49.77 45.7299 49.854 45.7439 49.938 45.7579Z" fill="black"/>
<path d="M67.0743 68.781C66.1683 67.953 65.3793 67.099 64.4553 66.434C63.8073 65.968 63.4163 65.511 63.4633 64.703C63.5203 63.746 63.5553 62.797 64.2853 62.042C65.0103 61.294 66.0663 61.095 66.5433 61.924C67.3933 63.394 68.5763 64.602 69.4633 66.039C69.9263 66.789 69.8363 67.186 69.3113 67.568C68.6843 68.021 67.9453 68.318 67.0743 68.781Z" fill="black"/>
<path d="M6.95223 20.2969C6.07123 21.5569 6.46024 23.3159 5.01624 24.4109C4.16624 24.2679 3.24622 24.1139 2.21922 23.9419C2.14522 23.7039 2.04723 23.4149 1.96523 23.1219C1.75823 22.3849 0.651226 21.9569 1.08623 21.0439C1.55923 20.0529 2.12522 19.0749 2.81822 18.2279C3.53122 17.3559 4.48022 17.3659 5.31822 18.1889C5.93022 18.7909 6.38323 19.5509 6.95223 20.2969Z" fill="black"/>
<path d="M92.0899 9.82895C91.0389 10.0159 90.1309 10.1789 89.2049 10.3429C87.5719 9.43392 86.5919 8.16194 86.8179 6.15094C86.9679 4.80394 87.6399 3.96495 88.7729 3.89795C90.1689 3.81495 91.5559 4.82893 91.7109 6.08493C91.8539 7.25393 91.9489 8.42895 92.0899 9.82895Z" fill="black"/>
<path d="M102.816 58.51C102.572 56.454 102.353 54.819 103.646 53.397C104.304 52.672 104.972 52.367 105.958 52.666C106.915 52.956 107.472 53.503 107.575 54.491C107.608 54.805 107.552 55.132 107.602 55.44C107.985 57.729 107.602 58.282 105.356 58.499C104.586 58.572 103.799 58.51 102.816 58.51Z" fill="black"/>
<path d="M114.824 13.1059C113.265 12.0469 112.037 11.4229 111.082 10.5129C109.771 9.26695 109.062 7.63895 109.394 5.77195C109.48 5.29195 109.89 4.59394 110.267 4.50794C110.788 4.38894 111.603 4.57595 111.968 4.94795C113.372 6.37695 114.142 8.17294 114.456 10.1499C114.586 10.9669 114.662 11.7909 114.824 13.1059Z" fill="black"/>
<path d="M31.6819 33.5839C31.3229 32.7249 31.0319 32.0009 30.7169 31.2869C29.9869 29.6289 29.8969 28.3149 31.9359 27.4619C33.7699 28.3059 34.7449 29.9199 34.4909 31.6919C34.3069 32.9689 33.5399 33.5019 31.6819 33.5839Z" fill="black"/>
<path d="M90.9653 16.329C91.4943 16.686 92.1953 16.895 92.3483 17.308C93.0123 19.095 93.2503 20.985 92.8733 22.867C92.7303 23.572 91.9923 23.689 91.3613 23.548C90.9163 22.683 90.5503 21.825 90.0563 21.05C88.9513 19.313 89.1133 18.087 90.9653 16.329Z" fill="black"/>
<path d="M71.5162 15.3769C71.1842 14.0699 70.5082 12.9259 71.3052 11.7099C72.5652 11.6879 73.3012 12.5459 74.1312 13.4299C73.9262 14.8049 72.9902 15.2949 71.5162 15.3769Z" fill="black"/>
<path d="M27.8312 20.33C28.2492 18.999 26.1422 17.476 28.1162 16.249C29.5772 18.174 29.5652 18.685 27.8312 20.33Z" fill="black"/>
</svg>

<svg width="139" height="92" fill="none" xmlns="http://www.w3.org/2000/svg"><path d="M106.104 84.229c.26 1.371.59 2.637.719 3.924.125 1.246-.557 2.316-1.662 2.551-2.412.514-4.689.172-6.78-1.344.194-.735.308-1.35.517-1.928.29-.797.863-1.266 1.725-1.478 1.756-.433 1.748-.468 3.076-2.157l-1.51-.909c.164-.43.359-.842.479-1.274.33-1.184 1.049-2.016 2.305-1.961 2.311.101 4.328-.402 6.236-1.822 1.322-.982 3.895.785 3.965 2.527.027.66-.611 1.335.094 2.028.094.092-.363.988-.744 1.271-1.268.94-2.768 1.17-4.309 1.039-1.416-.122-2.822-.317-4.111-.467zm-58.41-46.617c.22-1.226.74-1.85 1.934-1.848a12.44 12.44 0 002.6-.295c1.072-.23 2.117-.578 3.172-.878.074-.021.139-.093.213-.106 2.619-.464 4.617-1.845 6.402-3.816 1.287-1.422 3.668-.297 4.193 1.799.686 2.734.162 4.158-2.39 5.5-1.313.693-2.8 1.232-4.264 1.43-2.355.318-4.756.4-7.137.382-1.778-.014-3.444-.586-4.723-2.168zM6.36 60.184c.609-2.84.64-2.861 3.104-2.976 1.574-.073 3.186.015 4.71-.302 1.532-.318 3.05-.913 4.446-1.631 2.38-1.227 3.3-1.104 4.908.936.55.697.47 1.275.35 2.141-.293 2.081-1.621 2.902-3.31 3.516-4.19 1.525-8.321 1.008-12.395-.459-.641-.231-1.17-.78-1.813-1.225zm91.056 22.734c-.203.422-.428.891-.652 1.361.273.336.549.672.879 1.072-3.586 1.862-7.305 2.5-11.131 2.479-2.102-.012-4.281.428-6.326-.604l.695-.652-1.07-1.312c2.447-1.424 4.912-2.416 7.678-2.74 1.303-.152 2.551-.809 3.812-1.271 2.804-1.03 3.935-.745 6.115 1.667zm-37.451-4.785c.092-.356.359-.793.246-1.074-.418-1.032.246-1.279.962-1.482.377-.107.787-.125 1.184-.123 3.36.016 6.14-1.221 8.424-3.71 1.289-1.407 3.555-.694 4.066 1.333.28 1.112.232 2.352.102 3.508-.062.542-.623 1.071-1.055 1.514-.324.332-.793.529-1.211.764-3.568 2.004-9.665 1.658-12.718-.73zM16 31.068c.137-1.624.592-2.926 2.125-3.47-1.82-4.345-1.82-4.345-1.459-6.288 1.711.118 1.535 1.603 1.801 2.632.268 1.042.246 2.158.355 3.301 1.941.043 2.893-1.34 4.023-2.401.402-.38.676-.902 1.092-1.26 1.014-.871 2.047-.793 2.971.148 1.939 1.974 1.65 5.414-.74 6.813-1.207.706-2.646 1.11-4.035 1.382-1.978.387-4.252-.04-6.133-.857zM.956 68.168c1.5.164 2.68.26 3.848.43 1.631.24 3.141.048 4.621-.766 2.115-1.162 4.047-.328 4.604 1.928.23.925-.717 1.855-.094 2.825-.594.506-1.127 1.115-1.79 1.5-3.376 1.962-8.095.305-10.105-1.394-.445-.377-.779-1.025-.904-1.605-.18-.828-.122-1.708-.18-2.918zm105.542-35.744l.486 2.456c.281 1.433.025 2.088-1.297 2.709-2.088.982-4.268 1.083-6.582.51-.314-1.811-.352-3.349 1.693-4.178.418-.17.709-.815.922-1.301.949-2.152 1.332-2.329 3.623-1.536.146.051.309.056.6.106.053-.371.23-.774.135-1.096-.559-1.864.754-3.025 1.662-4.252.805-1.089 2.271-.796 2.963.411.039.068.051.151.082.224 1.236 2.877 1.758 4.472-2.697 5.64-.379.099-.77.151-1.59.307zm31.938-7.876c-2.582 1.364-4.918 1.072-7.318.129-.959-.376-.619-1.38-1.221-1.973-1.551-.161-2.943 1.228-4.549.673-.793-1.848-.572-3.438.881-4.796a1.94 1.94 0 00.293-.378c1.49-2.355 1.682-2.4 4.191-1.062l1.445 3.579c.256-.325.426-.589.643-.81 1.49-1.521 3.373-1.294 4.314.56.396.778.68 1.619.967 2.447.152.44.203.917.354 1.631zM34.83 4.503c2.007-.506 3.798-1.037 5.626-1.389 1.141-.22 2.025-.566 2.793-1.547.99-1.262 2.633-1.029 3.236.507.54 1.37.723 2.911.836 4.393.033.428-.627 1.151-1.123 1.338-2.875 1.087-5.867 1.469-8.922.995-1.027-.159-1.684-.831-1.883-1.907-.129-.696-.322-1.38-.564-2.39zm5.985 66.538c-4.234 3.873-8.023 4.438-11.428 1.668.037-.508.057-1.054.12-1.594.171-1.473.34-1.689 1.86-1.887 1.893-.246 3.367-1.242 4.777-2.417 1.494-1.245 2-1.333 3.141-.644 1.453.879 1.705 1.529 1.434 3.316-.076.507.06 1.045.096 1.558zm87.494-28.109c-5.748 4.66-8.502 5.438-14.115 4.845l1.469-1.16-1.232-.716c.076-.094.156-.19.234-.29.787-1.028 1.871-1.616 2.996-2.226 1.529-.827 2.99-1.811 4.365-2.876 1.281-.993 2.623-1.11 4.059-.665.855.266 1.639.744 1.211 1.889-.339.908.581.738 1.013 1.199zm-42.034 2.154c-.338.539-.738 1.035-.982 1.598-.963 2.205-2.836 3.163-5.01 3.622-1.949.412-3.934.532-5.893.025l-.285-2.216c.455-.902 1.467-1.501 2.596-1.869 1.855-.607 3.52-1.409 4.607-3.16.525-.846 1.398-1.279 2.443-1.254 1.324.03 1.979.604 2.223 1.971.053.297.084.6.146.895.03.142.109.275.155.388zm35.549 32.108c.115-.952.195-1.571.266-2.192.105-.959.592-1.572 1.518-1.919 1.586-.595 3.02-1.321 3.639-3.149.287-.845 1.234-1.285 2.189-1.1 1.145.223 2.109.875 2.506 1.988.342.961.559 2.017.555 3.03-.002.632-.43 1.321-.824 1.874-.252.354-.764.578-1.205.734-2.732.972-5.513 1.37-8.644.734zM51.676 16.533c-.06-.671-.162-1.274-.15-1.875.012-.626.133-1.25.223-2.005.707-.385 1.418-.999 2.22-1.158 1.255-.248 2.16-.772 2.948-1.792.672-.875 1.822-.843 2.79-.233 1.672 1.055 2.196 2.767 2.043 4.497-.145 1.634-1.501 2.6-3.078 2.972-.992.234-2.05.379-3.057.301-1.33-.102-2.64-.462-3.94-.707zm67.586-2.666c-2.455.029-3.586-1.316-3.037-3.206.127-.435.682-.94 1.129-1.053 1.535-.388 2.146-1.508 2.578-2.836.098-.302.131-.63.26-.916.426-.946 1.133-1.53 2.213-1.53 1.076 0 2.174.769 2.559 1.76.057.148.064.317.129.459.576 1.238 1.09 2.46.361 3.84-.84 1.587-2.252 2.453-3.838 3.032-.88.322-1.864.362-2.354.45zm-14.27 49.863c.061-.656.094-.969.117-1.282.148-2.041.168-2.222 2.051-2.608 1.506-.309 2.193-1.145 2.434-2.539.014-.078.049-.153.061-.231.154-1.003.508-1.88 1.615-2.13.908-.205 2.225.502 2.566 1.76.49 1.801 1.051 3.662.434 5.592-.299.933-.871 1.473-1.816 1.699-2.464.591-4.874.404-7.462-.261zm-80.146-8.847c.05-.823 0-1.475.148-2.077.123-.5.377-1.055.75-1.39 1.285-1.158 2.678-2.196 3.97-3.35.653-.585 1.345-.946 2.142-.577.95.44 1.902 1.147 1.965 2.228.123 2.182-.357 4.043-2.652 5.229-2.182 1.126-4.116 1.486-6.323-.063zm33.168-5.567c1.664-.743 2.762-1.653 3.601-2.997 1.19-1.901 3.65-1.631 4.404.498.395 1.108.53 2.478.266 3.608-.389 1.655-1.768 2.703-3.459 2.809-1.219.075-2.695-.034-3.628-.68-.713-.492-.758-1.954-1.184-3.238zm65.693 1.424c.238-.465.641-.973.543-1.104-1.109-1.482.318-1.838 1.086-2.222.979-.489 2.117-.663 3.281-1.001.082-.107.26-.275.363-.48.465-.914 1.088-1.693 2.213-1.439 1.195.271 1.777 1.277 2.133 2.365.168.512.131 1.087.26 1.615.443 1.824.195 2.207-1.742 2.499-2.629.396-5.246.226-8.137-.233zM68.699 91.111c-.424-.051-.896-.119-1.373-.164-.91-.085-1.48-.532-1.615-1.465-.082-.553-.158-1.107-.26-1.656-.18-.974.268-1.613 1.172-1.753 1.047-.162 1.689-.755 2.328-1.512.639-.758 1.227-1.835 2.535-1.19.939.462 1.52 2.09 1.244 3.338-.102.459-.24.914-.295 1.378-.25 2.124-.66 2.577-2.73 2.917-.312.051-.633.068-1.006.107zm27.01-22.714c-.943-.142-1.91-.197-2.82-.452-.74-.206-1.492-.499-1.455-1.594.047-1.311.35-2.17 1.408-2.436.758-.189 1.229-.492 1.686-1.123 1.227-1.697 3.148-1.493 4.092.395.205.412.24.913.334 1.377.632 3.088-.124 3.965-3.245 3.833zM32.061 13.144l-3.365.603c-1.141-.654-1.568-1.847-1.652-3.246-.098-1.59.42-2.981 1.439-4.154.756-.87 1.975-.885 2.717.01.48.58.922 1.373.971 2.097.103 1.559-.057 3.137-.11 4.69zm17.877 32.614c-.203.91-.316 1.855-.637 2.723-.285.78-.959.92-1.748.625-1.432-.537-2.004-1.908-2.732-3.023-.598-.912 1.074-3.79 2.15-4.127.803-.25 1.949.424 2.451 1.45.102.212.236.433.252.657.037.549.012 1.102.012 1.654l.252.04zm17.136 23.023c-.906-.828-1.695-1.682-2.619-2.347-.648-.466-1.039-.923-.992-1.731.057-.957.092-1.906.822-2.661.725-.748 1.781-.947 2.258-.118.85 1.47 2.033 2.678 2.92 4.115.463.75.373 1.147-.152 1.529-.627.453-1.366.75-2.237 1.213zM6.952 20.297c-.88 1.26-.492 3.019-1.936 4.114l-2.797-.47c-.074-.237-.172-.526-.254-.82-.207-.736-1.314-1.164-.879-2.077.473-.991 1.04-1.97 1.732-2.816.713-.872 1.662-.862 2.5-.04.612.603 1.065 1.363 1.634 2.109zM92.09 9.829l-2.885.514c-1.633-.91-2.613-2.181-2.387-4.192.15-1.347.822-2.186 1.955-2.253 1.396-.083 2.783.93 2.938 2.187.143 1.169.238 2.344.379 3.744z" fill="#000"/><path d="M102.816 58.51c-.244-2.056-.463-3.691.83-5.113.658-.725 1.326-1.03 2.312-.731.957.29 1.514.837 1.617 1.825.033.314-.023.641.027.949.383 2.289 0 2.842-2.246 3.059-.77.073-1.557.011-2.54.011zm12.008-45.404c-1.559-1.06-2.787-1.683-3.742-2.593-1.311-1.246-2.02-2.874-1.688-4.741.086-.48.496-1.178.873-1.264.521-.12 1.336.068 1.701.44 1.404 1.429 2.174 3.225 2.488 5.202.13.817.206 1.64.368 2.956zM31.682 33.584c-.36-.86-.65-1.583-.965-2.297-.73-1.658-.82-2.972 1.219-3.825 1.834.844 2.809 2.458 2.555 4.23-.184 1.277-.951 1.81-2.81 1.892zm59.283-17.255c.53.357 1.23.566 1.383.979.664 1.787.902 3.677.525 5.559-.143.705-.88.822-1.512.681-.445-.865-.81-1.723-1.305-2.498-1.105-1.737-.943-2.963.91-4.721zm-19.449-.952c-.332-1.307-1.008-2.451-.21-3.667 1.26-.022 1.995.836 2.825 1.72-.205 1.375-1.14 1.865-2.615 1.947zM27.831 20.33c.418-1.331-1.689-2.854.285-4.081 1.461 1.925 1.45 2.436-.285 4.081z" fill="#000"/></svg>
